!!!COM: Palestrina, Giovanni Perluigi da
!!!OPR: Petra sancta
!!!OTL: Credo
**kern	**kern	**kern	**kern	**kern
*Ibass	*Itenor	*Itenor	*Icalto	*Icant
!Bassus	!Tenor 2	!Tenor 1	!Altus	!Cantus
*clefF4	*clefGv2	*clefGv2	*clefG2	*clefG2
*k[]	*k[]	*k[]	*k[]	*k[]
*A:aeo	*A:aeo	*A:aeo	*A:aeo	*A:aeo
*M4/2	*M4/2	*M4/2	*M4/2	*M4/2
=1	=1	=1	=1	=1
0r	1A	0r	1r	0r
.	2A	.	1e	.
.	2A	.	.	.
=2	=2	=2	=2	=2
0r	2.c	0r	2e	1ee
.	.	.	2e	.
.	4d	.	.	.
.	4e	.	2.g	2ee
.	4d	.	.	.
.	4e	.	.	2ee
.	4f	.	4a	.
=3	=3	=3	=3	=3
0r	2g	0r	2b	2dd
.	2e	.	2g	2cc
.	1d	.	2a	1ff
.	.	.	2b	.
=4	=4	=4	=4	=4
0r	2.a	1A	0cc	1ee
.	4g	.	.	.
.	2f	2A	.	2r
.	4e	2A	.	2a
.	4d	.	.	.
=5	=5	=5	=5	=5
1A	1e	2.c	2r	2a
.	.	.	2a	2a
.	.	4d	.	.
2A	1r	4e	2a	1cc
.	.	4d	.	.
2A	.	4e	2a	.
.	.	4f	.	.
=6	=6	=6	=6	=6
2G	0r	2g	4d	2b-
.	.	.	4d	.
2F	.	2c	2.f	1a
1B-	.	1d	.	.
.	.	.	4e	.
.	.	.	2d	2g
=7	=7	=7	=7	=7
2A	2r	2.e	1c	4a
.	.	.	.	4b
2A	2e	.	.	4cc
.	.	4d	.	4dd
2A	2e	2c	1r	1ee
2G	2e	2B	.	.
=8	=8	=8	=8	=8
2.F	2d	2A	2r	0r
.	2c	2A	2a	.
4E	.	.	.	.
1D	1f	2.d	2a	.
.	.	.	2a	.
.	.	4c	.	.
=9	=9	=9	=9	=9
1E	1e	1B	2g	1ee
.	.	.	2g	.
1A	1e	2A	2.cc	2ee
.	.	2a	.	2ee
.	.	.	4b	.
=10	=10	=10	=10	=10
2D	1r	2f	2.a	2dd
2F	.	2e	.	2cc
.	.	.	4g	.
1D	2r	2.d	4f	1ff
.	.	.	4d	.
.	2A	.	[2a	.
.	.	4c	.	.
=11	=11	=11	=11	=11
1E	2e	1B	2a]	2.ee
.	2.e	.	2g#	.
.	.	.	.	4dd
1r	.	2A	[1a	4cc
.	4e	.	.	4a
.	2c	2A	.	2ee
=12	=12	=12	=12	=12
1D	2d	2d	0a]	2ff
.	2f	2.d	.	2dd
2A	[1e	.	.	1ee
.	.	4c	.	.
[2A	.	2c	.	.
=13	=13	=13	=13	=13
4A]	1e]	2A	2r	1r
4A	.	.	.	.
2G	.	2B	2e	.
2.A	1r	1c	2e	1a
.	.	.	[2a	.
4c	.	.	.	.
=14	=14	=14	=14	=14
1B	1r	1d	4a]	2dd
.	.	.	4g	.
.	.	.	2g	2.dd
1A	2r	1e	2.a	.
.	.	.	.	4dd
.	2A	.	.	2cc#
.	.	.	4a	.
=15	=15	=15	=15	=15
0r	2d	1r	2b-	2dd
.	1d	.	4a	2ff
.	.	.	4g	.
.	.	1A	1a	1ee
.	2c#	.	.	.
=16	=16	=16	=16	=16
1D	2d	2d	1r	1a
.	2f	1d	.	.
2A	[1e	.	2r	1r
[2A	.	2c	2a	.
=17	=17	=17	=17	=17
2A]	1e]	2A	2cc	2r
2G#	.	2B	2.b	2ee
2.A	1r	1c	.	2ff
.	.	.	4a	.
.	.	.	[2a	[2ee
4c	.	.	.	.
=18	=18	=18	=18	=18
1B-	1r	1d	2a]	4ee]
.	.	.	.	4dd
.	.	.	2g	1dd
1A	2r	1e	2.a	.
.	[2a	.	.	2cc#
.	.	.	4g	.
=19	=19	=19	=19	=19
2r	2a]	1d	4f	0dd
.	.	.	4e	.
1d	2a	.	4f	.
.	.	.	4g	.
.	1f	2r	1a	.
2d	.	[2a	.	.
=20	=20	=20	=20	=20
2.c	1e	2a]	0r	0r
.	.	2g	.	.
4B	.	.	.	.
2A	2c	2f	.	.
2G	2B	2e	.	.
=21	=21	=21	=21	=21
2A	2c	2.f	2r	0r
1B-	2.d	.	1f	.
.	.	4e	.	.
.	.	2d	.	.
.	4e	.	.	.
2A	[2f	2c	2f	.
=22	=22	=22	=22	=22
1G	4f]	2d	1b-	1r
.	8e	.	.	.
.	8d	.	.	.
.	2e	2B-	.	.
1F	1f	2c	2a	2r
.	.	2A	[2a	[2ff
=23	=23	=23	=23	=23
0r	2.f	2d	4a]	4ff]
.	.	.	4a	4ff
.	.	2d	2b	2ff
.	4f	.	.	.
.	2g	2c	2.cc	2.ee
.	2a	4A	.	.
.	.	4B	4b	4dd
=24	=24	=24	=24	=24
0r	1e	4c	2a	2cc
.	.	4d	.	.
.	.	2e	2g#	2b
.	1r	2A	2a	2cc
.	.	2a	2d	2dd
=25	=25	=25	=25	=25
1r	2r	2a	1e	1b
.	1e	2g#	.	.
[1A	.	[1a	2r	1a
.	2e	.	[2c	.
=26	=26	=26	=26	=26
2A]	2f	1a]	2c]	0r
2A	2f	.	2c	.
2B	[1g	1r	2d	.
2B	.	.	2d	.
=27	=27	=27	=27	=27
1c	1g]	2r	2.e	1r
.	.	1e	.	.
.	.	.	4d	.
1A	1a	.	1c#	2r
.	.	2e	.	[2a
=28	=28	=28	=28	=28
1d	2r	2f#	1d	2a]
.	1d	2f#	.	2a
1G	.	1g	2r	2b
.	2d	.	2g	2b
=29	=29	=29	=29	=29
1c	2e	2e	2g	2.cc
.	2e	2c	2.cc	.
.	.	.	.	4b
2F	2.f	1c	.	4a
.	.	.	4b	4b
2F	.	.	2a	4cc
.	4e	.	.	4a
=30	=30	=30	=30	=30
2G	2d	0r	2g	2b
2A	4c	.	2e	1a
.	8B	.	.	.
.	8A	.	.	.
1E	2B	.	1e	.
.	2B	.	.	2g#
=31	=31	=31	=31	=31
2r	1A	2r	2r	1a
2F	.	2a	2c	.
2F	2r	2a	2f	1r
2E	2c	2g	2g	.
=32	=32	=32	=32	=32
1F	2c	1f	1a	1r
.	2A	.	.	.
2.C	1c	2e	[1g	1ee
.	.	2c	.	.
4D	.	.	.	.
=33	=33	=33	=33	=33
4E	2G	2c	1g]	2ee
4F	.	.	.	.
2G	2g	2B	.	2dd
1C	2g	2c	2r	2ee
.	2e	2c	[2cc	2ee
=34	=34	=34	=34	=34
2r	2g	1G	2cc]	0dd
2G	2g	.	1b	.
2G	[1d	2r	.	.
2F#	.	[2d	2a	.
=35	=35	=35	=35	=35
2G	1d]	2d]	2b	2r
2G	.	2B	2b	1gg
1D	2r	1d	1a	.
.	[2d	.	.	[2ff
=36	=36	=36	=36	=36
1r	2d]	1A	2a	4ff]
.	.	.	.	8ee
.	.	.	.	8dd
.	2c#	.	2a	2ee
1D	1d	2r	1a	1ff
.	.	[2d	.	.
=37	=37	=37	=37	=37
1.A	1e	2d]	2a	2ee
.	.	1c	2cc	2ee
.	2r	.	2a	1ee
2G#	2e	2B	[2b	.
=38	=38	=38	=38	=38
1A	2e	2.c	4b]	2cc
.	.	.	4a	.
.	2c	.	1a	2.ee
.	.	4A	.	.
1E	1e	1B	.	.
.	.	.	.	4dd
.	.	.	2g#	2b
=39	=39	=39	=39	=39
2r	0e	1A	0a	2cc
1A	.	.	.	1cc
.	.	2r	.	.
2A	.	[2e	.	2cc
=40	=40	=40	=40	=40
2G#	2r	2e]	0r	2b
2A	1a	2e	.	2cc
1B	.	2.d	.	1dd
.	2g#	.	.	.
.	.	4e	.	.
=41	=41	=41	=41	=41
2A	1a	1f	2r	1cc
2F	.	.	1a	.
1A	1r	2e	.	2r
.	.	2c	2a	[2ee
=42	=42	=42	=42	=42
1c	0r	1e	2g	2ee]
.	.	.	2a	2ee
1G	.	2g	1b-	2dd
.	.	2g	.	2ee
=43	=43	=43	=43	=43
2.d	0r	2f	2a	1.ff
.	.	2d	2f	.
8c	.	.	.	.
8B	.	.	.	.
[1A	.	1c	2a	.
.	.	.	[2cc	2ee
=44	=44	=44	=44	=44
2A]	1r	1f	2cc]	2cc
2B	.	.	2b	2dd
1c	2r	1e	4a	2.ee
.	.	.	4g	.
.	[2e	.	[2cc	.
.	.	.	.	4dd
=45	=45	=45	=45	=45
1A	2e]	0r	4cc]	2cc
.	.	.	4b	.
.	2e	.	2.a	2cc
1r	2d	.	.	1b
.	.	.	8g#	.
.	.	.	8f#	.
.	2e	.	2g#	.
=46	=46	=46	=46	=46
2.D	1.f	2.d	2a	1a
.	.	.	1a	.
4D	.	4d	.	.
2D	.	2d	.	1r
2E	2e	2B	2g#	.
=47	=47	=47	=47	=47
2F	2c	2A	2a	2r
2D	2d	2A	2f	2.a
1A	2.e	4c	4e	.
.	.	4B	4d	4b
.	.	4A	4c	4cc
.	4d	4B	4B	4dd
=48	=48	=48	=48	=48
1A	2c	4c	2A	4ee
.	.	4d	.	4ff
.	2c	4e	2a	2.ee
.	.	4f	.	.
1r	1B-	4g	1d	.
.	.	4f	.	4dd
.	.	4e	.	[2dd
.	.	4d	.	.
=49	=49	=49	=49	=49
1r	1A	1e	[0a	2dd]
.	.	.	.	2cc#
2r	2r	1d	.	1dd
[2d	[2f	.	.	.
=50	=50	=50	=50	=50
2d]	2f]	2r	1a]	0r
2c#	2e	1a	.	.
2d	2f	.	1r	.
2B-	2d	2g	.	.
=51	=51	=51	=51	=51
1A	2c	2a	0r	0r
.	2.A	2f	.	.
[1c	.	1e	.	.
.	4B	.	.	.
.	4c	.	.	.
.	4d	.	.	.
=52	=52	=52	=52	=52
2c]	2e	1g	1r	2r
2B-	2d	.	.	1dd
1A	1a	2f	2r	.
.	.	2e	[2a	2cc#
=53	=53	=53	=53	=53
2D	0r	2f	2a]	2dd
2E	.	4e	2g#	2b
.	.	4d	.	.
2F	.	4c	2a	1a
.	.	4A	.	.
2D	.	2d	2f	.
=54	=54	=54	=54	=54
1A	0r	4c	1e	1.cc
.	.	4d	.	.
.	.	4e	.	.
.	.	4c	.	.
1G	.	2d	[1g	.
.	.	[2e	.	2b
=55	=55	=55	=55	=55
1D	0r	4e]	2g]	[0a
.	.	4d	.	.
.	.	1d	2f	.
1A	.	.	1e	.
.	.	2c#	.	.
=56	=56	=56	=56	=56
1r	2r	1d	1f#	1a]
.	2d	.	.	.
1G	2d	1r	[1g	1b
.	2d	.	.	.
=57	=57	=57	=57	=57
2G	2e	1r	1g]	2b
2G	2d	.	.	2b
2A	2c	2r	1r	2cc
[2G	8d	2d	.	[2b
.	8c	.	.	.
.	8B	.	.	.
.	8A	.	.	.
=58	=58	=58	=58	=58
2G]	2G	2d	1r	2b]
2F	2A	2d	.	1a
1E	1B	2.e	2r	.
.	.	.	2e	2g#
.	.	4d	.	.
=59	=59	=59	=59	=59
1A	1r	4c	2e	1a
.	.	4B	.	.
.	.	2c	2e	.
1r	2r	2d	2f	1r
.	2g	[2c	[2e	.
=60	=60	=60	=60	=60
1r	2g	2c]	4e]	1r
.	.	.	4d	.
.	2g	2B	1d	.
2r	1a	1A	.	1ee
2A	.	.	4c#	.
.	.	.	4B	.
=61	=61	=61	=61	=61
2A	1a	0r	2c#	2ee
2A	.	.	2a	2ee
2d	2r	.	2a	2ff
2c#	2e	.	2a	[2ee
=62	=62	=62	=62	=62
1d	1f	0r	2b-	4ee]
.	.	.	.	4dd
.	.	.	2.a	2.dd
1e	1g	.	.	.
.	.	.	4g	8cc#
.	.	.	.	8b
.	.	.	[2g	2cc#
=63	=63	=63	=63	=63
1d	1a	2r	2g]	0dd
.	.	2.a	2f#	.
1d	1r	.	2r	.
.	.	4g	.	.
.	.	2f	[2a	.
=64	=64	=64	=64	=64
2c	0r	2e	2a]	0r
2B	.	2d	2g	.
2.A	.	2.c	2f	.
.	.	.	2e	.
4G	.	4B	.	.
=65	=65	=65	=65	=65
2F	0r	2A	2.d	0r
2.G	.	4B	.	.
.	.	4A	4c	.
.	.	4B	4B	.
4F	.	4c	8A	.
.	.	.	8G	.
2D	.	[2d	2A	.
=66	=66	=66	=66	=66
1E	1r	2d]	2G	1r
.	.	2c#	2g	.
1D	1a	2d	4f	1ff
.	.	.	4g	.
.	.	2f	4a	.
.	.	.	4b	.
=67	=67	=67	=67	=67
0r	2g	2c	2cc	2ee
.	2f	2d	2a	2dd
.	2.e	[1A	2.a	2.cc
.	4d	.	8g	4b-
.	.	.	8f	.
=68	=68	=68	=68	=68
0r	2c	2A]	4e	2a
.	.	.	4f	.
.	2.d	2G	2g	2.b-
.	.	1d	4f	.
.	4e	.	4g	4a
.	[2f	.	4a	2f
.	.	.	4b	.
=69	=69	=69	=69	=69
0r	2f]	1c	1cc	1g
.	2e	.	.	.
.	1f	1F	1cc	1a
=70	=70	=70	=70	=70
0F	0f	2r	0a	0cc
.	.	1c	.	.
.	.	[2A	.	.
=71	=71	=71	=71	=71
1D	1a	2A]	1f	1dd
.	.	2.d	.	.
1A	2.a	.	1e	1ee
.	.	8c#	.	.
.	.	8B	.	.
.	.	2c#	.	.
.	4g	.	.	.
=72	=72	=72	=72	=72
1D	4f	1d	1a	1ff
.	4e	.	.	.
.	2.d	.	.	.
1A	.	1e	1a	2ee
.	8c#	.	.	.
.	8B	.	.	.
.	2c#	.	.	[2ee
=73	=73	=73	=73	=73
0D	1d	0f	1a	2ee]
.	.	.	.	4dd
.	.	.	.	4cc#
.	1d	.	2r	1dd
.	.	.	2a	.
=74	=74	=74	=74	=74
2r	1A	2r	1.cc	1ee
1A	.	1e	.	.
.	1r	.	.	1r
[2d	.	[2f	2b-	.
=75	=75	=75	=75	=75
2d]	0r	2f]	1a	0r
2c	.	2e	.	.
1B-	.	1d	1g	.
=76	=76	=76	=76	=76
1A	1e	1c#	2.a	1ee
.	.	.	4g	.
1D	[1a	2.d	4f	[1ff
.	.	.	4g	.
.	.	.	4a	.
.	.	4c	4b	.
=77	=77	=77	=77	=77
0r	2a]	4A	2.cc	2ff]
.	.	4B	.	.
.	2g	2c	.	2ee
.	.	.	4b	.
.	1f	1d	1a	1dd
=78	=78	=78	=78	=78
1A	1e	2r	2r	1cc#
.	.	2e	2a	.
1d	1d	1f	2a	1dd
.	.	.	[2a	.
=79	=79	=79	=79	=79
2.c	1r	2.e	2a]	0r
.	.	.	2g	.
4B	.	4d	.	.
2A	2r	2c	4f	.
.	.	.	4e	.
2G	2e	2B	[2e	.
=80	=80	=80	=80	=80
2F	1a	2A	2e]	0r
2F	.	2A	2d	.
1E	2.g	1B	1e	.
.	4f	.	.	.
=81	=81	=81	=81	=81
0C	2e	2.c	1g	0ee
.	2d	.	.	.
.	.	4d	.	.
.	2c	4e	2g	.
.	.	4f	.	.
.	2c	[2g	[2G	.
=82	=82	=82	=82	=82
0G	1B	2g]	4G]	0dd
.	.	.	4A	.
.	.	4G	4B	.
.	.	4A	4c	.
.	1B	4B	2d	.
.	.	4c	.	.
.	.	4d	[2d	.
.	.	4e	.	.
=83	=83	=83	=83	=83
0D	0d	1.f	4d]	1dd
.	.	.	4e	.
.	.	.	4f	.
.	.	.	4g	.
.	.	.	2a	[1ff
.	.	2d	[2f	.
=84	=84	=84	=84	=84
2.F	2c	1a	4f]	1ff]
.	.	.	4g	.
.	2.c	.	4a	.
4G	.	.	4b	.
1A	.	2a	2.cc	[1ee
.	4d	.	.	.
.	4e	[2a	.	.
.	8d	.	4b	.
.	8e	.	.	.
=85	=85	=85	=85	=85
0D	1f	4a]	0a	2ee]
.	.	4g	.	.
.	.	4f	.	4dd
.	.	4e	.	4cc#
.	1f	1d	.	1dd
=86	=86	=86	=86	=86
0A	0e	0c#	0a	0ee
*	*	*	*	*-
!! Crucifixus
*Ibass	*Itenor	*Itenor	*Icalto
!Bassus	!Tenor 2	!Tenor 1	!Altus
*clefF4	*clefGv2	*clefGv2	*clefG2
*k[]	*k[]	*k[]	*k[]
*A:aeo	*A:aeo	*A:aeo	*A:aeo
*M4/2	*M4/2	*M4/2	*M4/2
=87	=87	=87	=87
1.d	1.f	0r	1r
.	.	.	[1a
2c#	2e	.	.
=88	=88	=88	=88
1d	1f	0r	2a]
.	.	.	2a
2A	2e	.	1a
[2c	[2f	.	.
=89	=89	=89	=89
2c]	2f]	0r	2g
2B	2d	.	2g
2A	2c	.	2f
2G	2B	.	[2e
=90	=90	=90	=90
1F	1A	1.a	2e]
.	.	.	2d
1E	1B	.	1e
.	.	2g#	.
=91	=91	=91	=91
0D	0d	1a	2f
.	.	.	2.f
.	.	2d	.
.	.	.	4e
.	.	[2f	[2d
=92	=92	=92	=92
0r	1A	2f]	2d]
.	.	2e	2c
.	2r	2d	2f
.	[2a	2c	2e
=93	=93	=93	=93
2r	2a]	1B	1d
1d	2g#	.	.
.	[1a	1A	1e
2c#	.	.	.
=94	=94	=94	=94
1d	2a]	2.f	2.a
.	2d	.	.
.	.	8e	4a
.	.	8d	.
2A	2f	2.c	2a
[2c	2e	.	2g
.	.	4d	.
=95	=95	=95	=95
2c]	2c	2e	2a
2B	2d	2d	2b
2A	1e	2c	2cc
2G	.	[2e	[2b
=96	=96	=96	=96
1F	1A	2e]	4b]
.	.	.	4a
.	.	2d	1a
1E	1B	1e	.
.	.	.	2g#
=97	=97	=97	=97
2r	2r	1A	0a
2A	2c	.	.
2A	2c	2r	.
2A	2c	2e	.
=98	=98	=98	=98
2G	2B	2e	0r
2A	2c	2e	.
2B-	2d	2d	.
4A	2c	2e	.
4G	.	.	.
=99	=99	=99	=99
2F	2A	1f	1a
2D	1d	.	.
1A	.	1e	2a
.	2c	.	2a
=100	=100	=100	=100
0r	2B-	2d	2g
.	2A	2c	2a
.	1G	2d	1b-
.	.	[2g	.
=101	=101	=101	=101
2r	1d	2g]	1a
1d	.	2f	.
.	1r	2d	[1a
2c	.	2e	.
=102	=102	=102	=102
2A	0r	2f	2a]
2B	.	2g	2g
2c	.	2.a	2e
2d	.	.	2f
.	.	8g	.
.	.	8f	.
=103	=103	=103	=103
2c	0r	2e	2g
2A	.	1f	2a
1c	.	.	1g
.	.	2e	.
=104	=104	=104	=104
2.F	2r	2c	1a
.	1f	2d	.
4G	.	.	.
[1A	.	4c	1a
.	.	4B	.
.	2e	4c	.
.	.	4d	.
=105	=105	=105	=105
2A]	2c	2e	1.a
2D	2d	1d	.
1A	2e	.	.
.	2e	2c#	2a
=106	=106	=106	=106
2r	2d	1d	0a
2d	2f	.	.
2d	2f	2r	.
2d	2f	2a	.
=107	=107	=107	=107
2.c	2.e	2a	0r
.	.	2g	.
4B	4d	.	.
2A	2c	2f	.
2G	2B	2e	.
=108	=108	=108	=108
2A	2c	2.f	0r
2.B-	2.d	.	.
.	.	4e	.
.	.	1d	.
4A	4e	.	.
4G	[2f	.	.
4F	.	.	.
=109	=109	=109	=109
1G	2f]	1B-	1b-
.	2e	.	.
1F	1f	2c	2.a
.	.	2A	.
.	.	.	4g
=110	=110	=110	=110
0r	2r	2d	2f
.	2A	2c	2e
.	2d	2d	2f
.	2c	[2e	[2g
=111	=111	=111	=111
0r	2d	4e]	4g]
.	.	4d	4f
.	2B-	1d	4e
.	.	.	4d
.	1A	.	1e
.	.	2c#	.
=112	=112	=112	=112
2r	2r	1d	1d
2D	2d	.	.
2E	2c	1r	1r
2F	2A	.	.
=113	=113	=113	=113
2G	2B	0r	0r
2E	2c	.	.
4D	2.d	.	.
4E	.	.	.
4F	.	.	.
4G	4e	.	.
=114	=114	=114	=114
4A	4f	1r	0r
4B	4d	.	.
4c	4e	.	.
4A	4f	.	.
4B	2g	2r	.
4c	.	.	.
[2d	2f	2a	.
=115	=115	=115	=115
2d]	1e	2g	1r
2c#	.	2e	.
1d	2r	2.f	2r
.	2d	.	2d
.	.	4g	.
=116	=116	=116	=116
0r	2c	1a	2e
.	2A	.	2f
.	2B	2r	2g
.	2c	2g	2e
=117	=117	=117	=117
1r	2.d	2.f	4d
.	.	.	4e
.	.	.	4f
.	4e	4e	4g
2r	4f	2d	4a
.	4d	.	4b
2A	4e	2c	4cc
.	4f	.	4a
=118	=118	=118	=118
2G	1g	2d	2b
2E	.	2e	1cc
2F	2a	1d	.
2G	4g	.	2b
.	4f	.	.
=119	=119	=119	=119
2A	4e	0r	1cc
.	4c	.	.
4F	1f	.	.
4G	.	.	.
4A	.	.	1c
4B	.	.	.
[2c	2e	.	.
=120	=120	=120	=120
2c]	1d	1G	2.g
2B	.	.	.
.	.	.	4g
2c	1r	2.c	2e
2C	.	.	2g
.	.	4c	.
=121	=121	=121	=121
2.F	1c	2A	0a
.	.	2c	.
4F	.	.	.
2D	2.f	2.d	.
2F	.	.	.
.	4f	4c	.
=122	=122	=122	=122
1G	2d	2B	0g
.	2e	2.c	.
1G	2d	.	.
.	.	8B	.
.	.	8A	.
.	2d	2B	.
=123	=123	=123	=123
0C	1g	2.c	2e
.	.	.	2c
.	.	4d	.
.	2r	1e	2.g
.	2G	.	.
.	.	.	4g
=124	=124	=124	=124
1C	2.c	1r	2e
.	.	.	2g
.	4c	.	.
2.F	2A	1c	[1a
.	2c	.	.
4F	.	.	.
=125	=125	=125	=125
2D	2.d	2.f	1a]
2F	.	.	.
.	4c	4f	.
1G	2B	2d	[1g
.	[2c	2e	.
=126	=126	=126	=126
1G	4c]	1d	1g]
.	8B	.	.
.	8A	.	.
.	2B	.	.
2C	1c	2.e	2g
2c	.	.	2c
.	.	4f	.
=127	=127	=127	=127
2B	0r	1g	2d
2c	.	.	2e
2.A	.	1c	4f
.	.	.	4e
.	.	.	[2e
4G	.	.	.
=128	=128	=128	=128
2F	2r	2r	2e]
2F	2a	2A	2d
2E	2g#	2B	2e
2A	2a	2c	2e
=129	=129	=129	=129
1.D	2.f	2.d	1.a
.	4e	4e	.
.	2d	2f	.
2D	2d	2f	2a
=130	=130	=130	=130
2A	0c#	1e	0a
1A	.	.	.
.	.	2r	.
2A	.	[2e	.
=131	=131	=131	=131
1c#	1r	2e]	2r
.	.	2e	1a
1d	2r	1f#	.
.	[2d	.	2a
=132	=132	=132	=132
1G	2d]	1.g	1b
.	2d	.	.
1c	1e	.	2.cc
.	.	[2c	.
.	.	.	4b
=133	=133	=133	=133
1F	2.f	2c]	1a
.	.	1f	.
.	4e	.	.
1r	2d	.	2f
.	2c	[2e	[2g
=134	=134	=134	=134
0r	1B-	4e]	4g]
.	.	4d	4f
.	.	1d	4e
.	.	.	4d
.	2A	.	1e
.	2e	2c#	.
=135	=135	=135	=135
2r	2f	1d	1d
1G	4g	.	.
.	4f	.	.
.	4e	2.g	1b-
.	4d	.	.
2G	[2d	.	.
.	.	4f	.
=136	=136	=136	=136
1A	2d]	1e	2.a
.	2c#	.	.
.	.	.	4g
2.B-	2d	2d	4f
.	.	.	4e
.	[2d	4G	4d
4A	.	4A	4c
=137	=137	=137	=137
2G	2d]	4B-	2B-
.	.	4c	.
2F	2d	1d	2A
1E	1e	.	1G
.	.	2c#	.
=138	=138	=138	=138
2D	2.f	1d	2A
1D	.	.	1a
.	4e	.	.
.	2d	2r	.
2D	2f	[2d	2a
=139	=139	=139	=139
1G	1g	2d]	1b
.	.	2d	.
1C	1g	1e	2.cc
.	.	.	4b
=140	=140	=140	=140
1F	2r	2.f	2a
.	2a	.	2cc
.	.	4e	.
2G	2g	2d	2b
2A	2e	2c	[2a
=141	=141	=141	=141
0E	0e	0B	2a]
.	.	.	4g#
.	.	.	4f#
.	.	.	1g#
=142	=142	=142	=142
0A	0e	0c#	0a
*-	*-	*-	*-
!! Et in Spiritum
**kern	**kern	**kern	**kern	**kern
*Ibass	*Itenor	*Itenor	*Icalto	*Icant
!Bassus	!Tenor 2	!Tenor 1	!Altus	!Cantus
*clefF4	*clefGv2	*clefGv2	*clefG2	*clefG2
*k[]	*k[]	*k[]	*k[]	*k[]
*A:aeo	*A:aeo	*A:aeo	*A:aeo	*A:aeo
*M4/2	*M4/2	*M4/2	*M4/2	*M4/2
=143	=143	=143	=143	=143
0r	1a	1A	1cc	1ee
.	1a	1A	1cc	1ee
=144	=144	=144	=144	=144
1E	2.g#	2.e	2.b	2.ee
.	4g#	4e	4b	4ee
1E	1g#	1e	1b	1ee
=145	=145	=145	=145	=145
2.A	2r	2c	1.cc	1ee
.	1a	2.A	.	.
4A	.	.	.	.
1A	.	.	.	2ff
.	.	4B	.	.
.	2a	4c	2cc	[2ee
.	.	4d	.	.
=146	=146	=146	=146	=146
0r	2g	2e	2b	2ee]
.	2f	1a	2a	2dd
.	1e	.	1b	[1ee
.	.	2g#	.	.
=147	=147	=147	=147	=147
1.A	1.c	2a	1e	1ee]
.	.	4A	.	.
.	.	4B	.	.
.	.	4c	2f	1r
.	.	4d	.	.
2A	2c	4e	[2e	.
.	.	4f	.	.
=148	=148	=148	=148	=148
2G	2B	2g	2e]	1r
2F	2A	2a	2d	.
1E	1B	2a	1e	1b
.	.	2g#	.	.
=149	=149	=149	=149	=149
1A	2r	1a	2r	1cc
.	2e	.	1a	.
1r	1f	2r	.	1cc
.	.	2f	2a	.
=150	=150	=150	=150	=150
0r	2B-	2f	4b-	1dd
.	.	.	4a	.
.	2B-	2.g	4g	.
.	.	.	4f	.
.	[1c	.	4e	[1cc
.	.	4f	4d	.
.	.	4e	2c	.
.	.	4d	.	.
=151	=151	=151	=151	=151
0r	0c]	2e	2g	0cc]
.	.	1f	2a	.
.	.	.	1g	.
.	.	2e	.	.
=152	=152	=152	=152	=152
2r	2F	1f	2r	2a
1F	1f	.	1a	1cc
.	.	1r	.	.
2F	2f	.	2a	2cc
=153	=153	=153	=153	=153
1B-	1d	1r	2f	1dd
.	.	.	2g	.
[1A	2e	2r	[1a	4cc
.	.	.	.	4dd
.	[2e	[2c	.	4ee
.	.	.	.	4ff
=154	=154	=154	=154	=154
1A]	4e]	4c]	1a]	1ee
.	4e	4c	.	.
.	2e	2c	.	.
1r	2f	2d	1r	2r
.	2g	2e	.	[2cc
=155	=155	=155	=155	=155
0r	2.a	2.f	2r	4cc]
.	.	.	.	4cc
.	.	.	2.f	2cc
.	4g	4g	.	.
.	2f	2a	.	2dd
.	.	.	4f	.
.	2e	2g	2g	2ee
=156	=156	=156	=156	=156
1r	1d	1f	2a	1ff
.	.	.	2b	.
2r	1c	2g	2.cc	2ee
[2F	.	2a	.	[2cc
.	.	.	4b	.
=157	=157	=157	=157	=157
4F]	0r	2f	1a	4cc]
4F	.	.	.	4cc
2F	.	2f	.	2cc
2G	.	2d	2g	2b-
2A	.	[2f	4f	2a
.	.	.	4e	.
=158	=158	=158	=158	=158
1B-	1r	2f]	1d	2f
.	.	4e	.	2g
.	.	4d	.	.
2A	2r	2c#	2e	[1a
[2d	[2f	2d	2d	.
=159	=159	=159	=159	=159
2d]	2f]	1A	2r	1a]
2c	2e	.	2.a	.
1d	1f	1r	.	1r
.	.	.	4a	.
.	.	.	2a	.
=160	=160	=160	=160	=160
2B-	2d	2r	2g	0r
2A	2c	1f	2f	.
2G	2g	.	2b-	.
2G	2g	2e	2b-	.
=161	=161	=161	=161	=161
2F	2c	1f	0a	0r
2.D	2d	.	.	.
.	2f	2d	.	.
4E	.	.	.	.
4F	2f	2d	.	.
4G	.	.	.	.
=162	=162	=162	=162	=162
1A	2e	2c	2r	0ee
.	1a	2A	1cc	.
1E	.	1e	.	.
.	2g#	.	2b	.
=163	=163	=163	=163	=163
1A	2.a	2r	2.cc	1ee
.	.	1A	.	.
.	4g	.	4b	.
2D	2f	.	2a	2dd
2A	2e	2A	2a	2cc
=164	=164	=164	=164	=164
0D	0d	2.a	2.f	0ff
.	.	4g	4g	.
.	.	2f	1a	.
.	.	2d	.	.
=165	=165	=165	=165	=165
1A	1c#	1e	1a	1ee
2r	2r	2A	2r	2r
2A	2e	2c#	2a	2ee
=166	=166	=166	=166	=166
2A	2e	2c#	2a	2ee
2A	2e	2c#	2a	2ee
2D	2a	2d	2f	2dd
2A	2a	2e	2e	2cc
=167	=167	=167	=167	=167
1D	4f	1a	1d	1ff
.	4e	.	.	.
.	1d	.	.	.
[1A	.	[1a	1e	[1ee
.	4c#	.	.	.
.	4B	.	.	.
=168	=168	=168	=168	=168
1A]	1c#	1a]	2.e	1ee]
.	.	.	4e	.
1A	1c#	2r	2e	2.a
.	.	[2A	2e	.
.	.	.	.	4a
=169	=169	=169	=169	=169
1D	2.d	2A]	1f#	2a
.	.	2d	.	2a
.	4d	.	.	.
1G	2d	2B	2g	1b
.	2d	2G	4g	.
.	.	.	4f	.
=170	=170	=170	=170	=170
1C	1e	4g	4e	2.cc
.	.	4f	4d	.
.	.	4e	2.c	.
.	.	4d	.	4b
1F	2.f	2c	.	2a
.	.	.	4A	.
.	.	2A	2a	2cc
.	4e	.	.	.
=171	=171	=171	=171	=171
2G	2d	2B	4g	2b
.	.	.	4f	.
2A	2c	2.e	4e	1a
.	.	.	4d	.
1E	1B	.	1e	.
.	.	4d	.	.
.	.	2B	.	2g#
=172	=172	=172	=172	=172
2A	2A	1c#	1e	0a
2A	2e	.	.	.
2d	2f	1r	2r	.
2c#	2e	.	2a	.
=173	=173	=173	=173	=173
1d	1f	0r	2b-	0r
.	.	.	2a	.
1G	2d	.	1b-	.
.	[2g	.	.	.
=174	=174	=174	=174	=174
1d	4g]	0r	2a	0r
.	4f	.	.	.
.	2f	.	2a	.
2c	2e	.	2a	.
2B-	2d	.	2g	.
=175	=175	=175	=175	=175
1A	4c	1e	2a	1r
.	4B	.	.	.
.	4A	.	2cc	.
.	4B	.	.	.
1r	4c	2a	2cc	1ee
.	4d	.	.	.
.	2e	2g#	2b	.
=176	=176	=176	=176	=176
0r	1A	2.a	2.cc	2ff
.	.	.	.	2ee
.	.	4a	4cc	.
.	1r	1d	4a	2.ff
.	.	.	4g	.
.	.	.	4a	.
.	.	.	4b	4ff
=177	=177	=177	=177	=177
0r	1r	1a	2cc	2ee
.	.	.	2cc	2ee
.	2r	2g	2b	2ee
.	2a	2f	2a	2dd
=178	=178	=178	=178	=178
1r	2a	1e	1b	0ee
.	2g#	.	.	.
1A	2a	1c	1a	.
.	2e	.	.	.
=179	=179	=179	=179	=179
2A	2e	2c	0r	0r
2A	2f	2c	.	.
2.G	2e	2.B	.	.
.	2d	.	.	.
4F	.	4A	.	.
=180	=180	=180	=180	=180
2E	2c	2G	1r	1r
2D	2.d	2F	.	.
2E	.	2G	2r	2r
.	4c	.	.	.
2F	[2c	2A	2c	2ff
=181	=181	=181	=181	=181
1D	2c]	1F	2d	2ff
.	2B	.	2d	2ff
1C	2c	1G	2e	2.ee
.	2e	.	2g	.
.	.	.	.	4dd
=182	=182	=182	=182	=182
0r	2f	0r	2a	2cc
.	2g	.	2e	2b
.	2a	.	2A	2cc
.	2d	.	[2a	2dd
=183	=183	=183	=183	=183
1r	1e	0r	2a]	1b
.	.	.	2g#	.
2r	2r	.	2a	2a
[2F	[2f	.	[2a	[2cc
=184	=184	=184	=184	=184
2F]	2f]	0r	2a]	2cc]
2F	2f	.	2a	2cc
2c	2.e	.	2.g	2cc
2G	.	.	.	2b
.	4d	.	4f	.
=185	=185	=185	=185	=185
2A	2c	0r	2e	2a
2B	2B	.	2d	2g
2c	2A	.	2e	2a
2F	[2c	.	2f	2a
=186	=186	=186	=186	=186
1G	2c]	1r	1d	1g
.	2B	.	.	.
1C	1c	2r	[1g	2e
.	.	[2c	.	[2ee
=187	=187	=187	=187	=187
0r	2r	2c]	1g]	2ee]
.	1g	2B	.	2dd
.	.	1c	2r	1ee
.	2e	.	[2cc	.
=188	=188	=188	=188	=188
2r	1g	1G	2cc]	[0dd
1G	.	.	2.b	.
.	[1d	1r	.	.
.	.	.	4g	.
2F#	.	.	2a	.
=189	=189	=189	=189	=189
1G	1d]	2r	1b	0dd]
.	.	1g	.	.
1D	2r	.	1a	.
.	[2d	2f#	.	.
=190	=190	=190	=190	=190
1.G	2d]	1g	1.b	0r
.	2d	.	.	.
.	2d	[1g	.	.
2G	2d	.	2b	.
=191	=191	=191	=191	=191
2G	2e	1g]	2b	1r
2G	2d	.	2b	.
2A	2c	1r	2cc	2r
2G	2d	.	2b	[2dd
=192	=192	=192	=192	=192
2F	4d	0r	2a	2dd]
.	4c	.	.	.
2G	4B	.	2g	2dd
.	4c	.	.	.
2D	4d	.	4f	2dd
.	4c	.	4g	.
2F	4B	.	[2a	2dd
.	4A	.	.	.
=193	=193	=193	=193	=193
1E	1B	2r	2a]	1ee
.	.	1e	2g#	.
1A	1A	.	[1a	2cc
.	.	2e	.	4a
.	.	.	.	4b
=194	=194	=194	=194	=194
0r	2.A	2e	1a]	4cc
.	.	.	.	4dd
.	.	2e	.	4ee
.	4A	.	.	4cc
.	2d	2f	[1a	2dd
.	2c#	2e	.	2ee
=195	=195	=195	=195	=195
1r	2d	2d	2a]	2ff
.	2e	2c#	2a	2.ee
2r	2f	2d	2.a	.
.	.	.	.	4dd
2F	2f	2A	.	[2dd
.	.	.	8g	.
.	.	.	8a	.
=196	=196	=196	=196	=196
2G	1e	0r	2b-	2dd]
2A	.	.	2a	2cc#
2B-	2.d	.	2r	1dd
[2B-	.	.	2f	.
.	4c	.	.	.
=197	=197	=197	=197	=197
2B-]	4d	2r	2g	0r
.	4e	.	.	.
2A	2f	2c	2a	.
2G	1g	2d	1b-	.
2G	.	2e	.	.
=198	=198	=198	=198	=198
2.F	2r	2f	1a	0r
.	2c	1f	.	.
4E	.	.	.	.
2D	2d	.	1a	.
2C#	2e	2e	.	.
=199	=199	=199	=199	=199
4D	1f	2d	4a	0r
4E	.	.	4g	.
4F	.	2d	4a	.
4G	.	.	4b	.
4A	2.e	2c	2cc	.
4B	.	.	.	.
2c	.	[2g	2cc	.
.	4e	.	.	.
=200	=200	=200	=200	=200
2G	2d	4g]	2b	0r
.	.	4f	.	.
2A	2c	4e	2.a	.
.	.	4d	.	.
1E	1B	2.e	.	.
.	.	.	8g#	.
.	.	.	8f#	.
.	.	.	2g#	.
.	.	4d	.	.
=201	=201	=201	=201	=201
1.F	2A	2.c	1a	2r
.	4A	.	.	2cc
.	4G	4B	.	.
.	4A	2A	1r	2dd
.	4B	.	.	.
2E	[2c	2G	.	2ee
=202	=202	=202	=202	=202
1D	4c]	1F	2r	1ff
.	4B	.	.	.
.	4B	.	2f	.
.	4A	.	.	.
1C	1c	2r	2g	1ee
.	.	2c	2a	.
=203	=203	=203	=203	=203
1r	0r	2d	2b-	2dd
.	.	2e	2g	1cc
1F	.	2.f	2a	.
.	.	.	2a	4b-
.	.	4e	.	4a
=204	=204	=204	=204	=204
2G	1r	2d	2g	2b-
2A	.	2c	2.f	1a
1B-	2r	1d	.	.
.	.	.	4e	.
.	2d	.	2d	2g
=205	=205	=205	=205	=205
1A	2e	0r	2c	2a
.	2e	.	2.cc	2cc
1G	1g	.	.	2dd
.	.	.	8b	.
.	.	.	8a	.
.	.	.	2b	2ee
=206	=206	=206	=206	=206
2.F	1a	2r	4cc	1ff
.	.	.	4b	.
.	.	2c	4a	.
4E	.	.	4g	.
2D	1a	2d	4f	2ff
.	.	.	4d	.
2C#	.	2e	2a	2ee
=207	=207	=207	=207	=207
4D	1r	1f	0a	2dd
4E	.	.	.	.
4F	.	.	.	2dd
4G	.	.	.	.
1A	2r	2.e	.	4cc
.	.	.	.	4b
.	2c	.	.	4a
.	.	4e	.	4g
=208	=208	=208	=208	=208
2r	2d	2d	0r	4f
.	.	.	.	4g
2C	2e	2c	.	1a
2D	2f	1B	.	.
2E	2e	.	.	2g#
=209	=209	=209	=209	=209
1F	2c	0A	2r	1a
.	1f	.	2c	.
2D	.	.	2d	1r
2C#	[2e	.	2e	.
=210	=210	=210	=210	=210
2.D	2e]	1A	2.f	1dd
.	1d	.	.	.
4D	.	.	4f	.
1A	.	2r	1e	2.ee
.	2c#	[2a	.	.
.	.	.	.	8dd
.	.	.	.	8ee
=211	=211	=211	=211	=211
0D	0d	4a]	4d	4ff
.	.	4g	4e	4ee
.	.	4f	4f	4dd
.	.	4e	4g	4cc#
.	.	1f	1a	1dd
=212	=212	=212	=212	=212
0A	0c#	0e	0a	0ee
==	==	==	==	==
*-	*-	*-	*-	*-
!!!CDT: 1525/^1526/-1594/2/2
!!!OCY: Italia
!!!AGN: Mass (Parody)
!!!AST: renaissance, vocal
!!!ASW: Madrigal 1561 (Palestrina)
!!!PWK: Masses, Book 10
!!!RNB: Cadence finals: D
!!!YOR: Le Opere Complete, v. 27, p. 52
!!!YOO: Rome, Italy: Fratelli Scalera
!!!END: 1992//
!!!EED: John Miller
!!!YEC: Copyright 2000, John Miller
!!!YEN: United States of America
!!!YEM: Rights to all derivative electronic formats reserved.
!!!YEM: Refer to licensing agreement for further details.
!!!YEM: This file must be accompanied by the licensing agreement.
!!!YEM: A copy of the licensing agreement may be found at http://www.music-cog.ohio-state.edu/HumdrumDatabases/Palestrina/license.txt
!!!EMD: converted to Humdrum by Bret Aarden
